X:502
T:
R:vals
S:Efter »Florsen» i Burs.
O:Gotland, Burs
M:3/4
L:1/8
K:C
(GF)|LE2 c2 (Gc)|Le2 d2 (FE)|DD BB GG|Lf2 d2 (GF)|
LE2 c2 Gc|Le2 d2 (FE)|(DD) (BG)(Bd)|c4:|gf|e2 cccc|
a2 gffe|e2 dddd|g2 e2 GF|E2 Gceg|c'4 g2|a2 afdB|
c4::Bc|(dB)(GB)(df)|Le2 cccc|Lf2 dddf|Le2 ccce|
(dB)(GB)(df)|Le2 cccc|fe d2 d2|c4::EF|G2 (GA)(GF)|
E2 Gc e2|(de)(dc)(df)|Le2 c2 EF|G2 GAGF|E2 Gc e2|
(de)(d^c)(de)|c4:|

